app/dist/common/images/osiris-acquisition-corp.svg

<svg height="18" viewBox="0 0 18 18" width="18" xmlns="http://www.w3.org/2000/svg"><path d="m0 0h18v18h-18z" fill="#152045"/><path d="m11.23 11c0-.1-.03-.21-.1-.22l-.07-.01h-.2l-1.56-3.77h-.4l-1.46 3.77h-.44v.23h1.21c0-.1-.03-.21-.1-.22a.4.4 0 0 0 -.07-.01h-.34l.49-1.39h1.34l.5 1.39h-.46v.23h1.67zm-1.79-1.8h-1.19l.6-1.46.6 1.45zm-4.47-2.2c-1.09 0-1.97.84-1.97 1.95s.86 2.05 1.97 2.05a2.1 2.1 0 0 0 2.03-2.03c0-1.1-.95-1.97-2.03-1.97zm.02 3.82c-.91 0-.99-1.38-.99-1.85 0-.93.22-1.84.95-1.79.99 0 1.05 1.06 1.05 1.8 0 .7-.1 1.84-1.01 1.84zm9.88.14c-.09-.03-.12-.12-.12-.29a3.4 3.4 0 0 1 -1.44.33c-.7 0-1.27-.2-1.7-.6-.4-.38-.61-.85-.61-1.4 0-.47.15-.88.46-1.25.42-.5 1.04-.75 1.85-.75.53 0 1 .1 1.41.33 0-.08 0-.15.02-.19.02-.07.14-.1.26-.1v1.24h-.26a2.9 2.9 0 0 0 -.14-.38 1.25 1.25 0 0 0 -1.2-.71c-.17 0-.33.02-.48.07-.6.2-.92.78-.92 1.72 0 1.21.47 1.82 1.35 1.83h.25c.58-.08.97-.44 1.18-1.1h.22v1.26z" fill="#fff"/></svg>

<!-- by TradingView --><svg width="18" height="18" viewBox="0 0 18 18" xmlns="http://www.w3.org/2000/svg"><path fill="#152045" d="M0 0h18v18H0z"/><path d="M11.23 11c0-.1-.03-.21-.1-.22l-.07-.01h-.2L9.3 7H8.9l-1.46 3.77H7V11h1.21c0-.1-.03-.21-.1-.22a.4.4 0 0 0-.07-.01H7.7l.49-1.39h1.34l.5 1.39h-.46V11h1.67ZM9.44 9.2H8.25l.6-1.46.6 1.45ZM4.97 7C3.88 7 3 7.84 3 8.95 3 10.06 3.86 11 4.97 11A2.1 2.1 0 0 0 7 8.97C7 7.87 6.05 7 4.97 7Zm.02 3.82c-.91 0-.99-1.38-.99-1.85 0-.93.22-1.84.95-1.79.99 0 1.05 1.06 1.05 1.8 0 .7-.1 1.84-1.01 1.84Zm9.88.14c-.09-.03-.12-.12-.12-.29a3.4 3.4 0 0 1-1.44.33c-.7 0-1.27-.2-1.7-.6-.4-.38-.61-.85-.61-1.4 0-.47.15-.88.46-1.25.42-.5 1.04-.75 1.85-.75.53 0 1 .1 1.41.33 0-.08 0-.15.02-.19.02-.07.14-.1.26-.1v1.24h-.26a2.9 2.9 0 0 0-.14-.38 1.25 1.25 0 0 0-1.2-.71c-.17 0-.33.02-.48.07-.6.2-.92.78-.92 1.72 0 1.21.47 1.82 1.35 1.83h.25c.58-.08.97-.44 1.18-1.1H15v1.26l-.13-.01Z" fill="#fff"/></svg>
